X:1
T:Bury Me in my Overalls
M:4/4
L:1/8
K:D
 DD DE FG AF| GG GF E3 z| EE EF GA BG| AA A2 F3 z| GG GA B^A B2| AB AG FG AF|\
 A2 GE E A2 G| FE D2 D2 z2|
